!!!COM: Bach, Johann Sebastian
!!!OPR: Joh. Seb. Bachs vierstimmige Choralgesänge
!!!XEN: Four-part Chorales
!!!OTL: Chorale 75. Herr Gott, dich loben wir
!!!SCT: BWV 328
!!!SCA: Thematisch-systematisches Verzeichnis der musikalischen Werke Johann Sebastian Bach: Bach-Werke-Verzeichnis (Schmieder)
!!!YOR: Bach Gesellschaft Edition xxxix
!!!ENC: Steven Rasmussen
!!!CDT: 1685/3//-1750/7/28/
!!!OCY: Deutschland
!!!YEC: Copyright (c) 1994, 2000 Center for Computer Assisted Research in the Humanities
!!!YEM: Rights to all derivative editions reserved
!!!YEN: United States of America
**kern	**silbe	**kern	**silbe	**kern	**silbe	**kern	**silbe
*I:[BASSO]	*I:[BASSO]	*I:[TENORE]	*I:[TENORE]	*I:[ALTO]	*I:[ALTO]	*I:[SOPRANO]	*I:[SOPRANO]
*>[A,B,B,C,C,D,D,E,E,F,F,G,H,H,I]	*	*>[A,B,B,C,C,D,D,E,E,F,F,G,H,H,I]	*	*>[A,B,B,C,C,D,D,E,E,F,F,G,H,H,I]	*	*>[A,B,B,C,C,D,D,E,E,F,F,G,H,H,I]	*
*>A	*	*>A	*	*>A	*	*>A	*
*clefF4	*	*clefGv2	*	*clefG2	*	*clefG2	*
*k[]	*	*k[]	*	*k[]	*	*k[]	*
*C:	*	*C:	*	*C:	*	*C:	*
*M4/4	*	*M4/4	*	*M4/4	*	*M4/4	*
4EE	.	4G	.	4B	.	4e	Herr
=1	=1	=1	=1	=1	=1	=1	=1
4E	.	4B	.	4e	.	4g	Gott,
4D	.	4d	.	4f	.	4a	dich
4C	.	4G	.	8fL	.	4cc	lo-
.	.	.	.	8eJ	.	.	.
4D	.	8GL	.	4d	.	4a	-ben
.	.	8FJ	.	.	.	.	.
=2	=2	=2	=2	=2	=2	=2	=2
2AA;	.	2E;	.	2c;	.	2a;	wir,
4r	.	4r	.	4r	.	4r	.
4A	.	8cL	.	8eL	.	4cc	Herr
.	.	8dJ	.	8f#J	.	.	.
=3	=3	=3	=3	=3	=3	=3	=3
8EL	.	8eL	.	8gL	.	4cc	Gott,
8F#J	.	8dJ	.	8aJ	.	.	.
4G	.	4d	.	8aL	.	4b	wir
.	.	.	.	8gJ	.	.	.
4C	.	(16eLL	.	8gL	.	4a	dan-
.	.	16dJJ	.	.	.	.	.
.	.	4c)	.	16f#L	.	.	.
.	.	.	.	16eJJ	.	.	.
4D	.	.	.	4f#	.	4a	-ken
.	.	16dLL	.	.	.	.	.
.	.	16cJJ	.	.	.	.	.
=4	=4	=4	=4	=4	=4	=4	=4
2.GG;	.	2.B;	.	2.d;	.	2.g;	dir.
=!|:	=!|:	=!|:	=!|:	=!|:	=!|:	=!|:	=!|:
*>B	*	*>B	*	*>B	*	*>B	*
4E	.	4e	.	4g	.	4cc	Dich,All'auch
=5	=5	=5	=5	=5	=5	=5	=5
4A	.	8eL	.	8gL	.	4cc	GottEn-Che-
.	.	16dL	.	16f#L	.	.	.
.	.	16cJJ	.	16eJJ	.	.	.
8DL	.	4d	.	8f#L	.	4cc	Va--gel-ru-
16EL	.	.	.	8aJ	.	.	.
16F#JJ	.	.	.	.	.	.	.
4.G	.	4d	.	8aL	.	4b	-terund-bim
.	.	.	.	16gL	.	.	.
.	.	.	.	16f#JJ	.	.	.
.	.	8cL	.	8eL	.	4a	inall'und
8F#	.	16dL	.	8dJ	.	.	.
.	.	16cJJ	.	.	.	.	.
=6	=6	=6	=6	=6	=6	=6	=6
8GL	.	8BL	.	(8d	.	4b	E-Him-Se-
8EJ	.	16eL	.	4g)	.	.	.
.	.	16dJJ	.	.	.	.	.
4A	.	4c#	.	.	.	4a	-wig--mels--ra-
.	.	.	.	16f#LL	.	.	.
.	.	.	.	16eJJ	.	.	.
4D;	.	4d;	.	4f#;	.	4a;	-keit,-heer',-phim
4C#	.	4e	.	8eL	.	4a	eh-undsin-
.	.	.	.	8gJ	.	.	.
=7	=7	=7	=7	=7	=7	=7	=7
4D	.	4.d	.	8gL	.	4a	-retwas-gen
.	.	.	.	8fJ	.	.	.
4E	.	.	.	8fL	.	4g	diedaim-
.	.	16cLL	.	16eL	.	.	.
.	.	16BJJ	.	16dJJ	.	.	.
8FL	.	8AL	.	4c	.	4a	Weltdie--mer
8EJ	.	8GJ	.	.	.	.	.
4D	.	4F	.	16dLL	.	4b	|-netmit
.	.	.	.	16eJ	.	.	.
.	.	.	.	8fJ	.	.	.
=8	=8	=8	=8	=8	=8	=8	=8
4C	.	8GL	.	(16eLL	.	4cc	weitdei-ho-
.	.	.	.	16f#JJ	.	.	.
.	.	8eJ	.	4g)	.	.	.
4D	.	8.dL	.	.	.	4a	und-ner-her
.	.	.	.	8f#	.	.	.
.	.	16cJk	.	.	.	.	.
4GG;	.	4B;	.	4d;	.	4g;	breit.Ehr',Stimm':
=:!!:	=:!!:	=:!!:	=:!!:	=:!!:	=:!!:	=:!!:	=:!!:
*>C	*	*>C	*	*>C	*	*>C	*
4C	.	4G	.	4c	.	4e	Hei-Hei-
=9	=9	=9	=9	=9	=9	=9	=9
4BB	.	8GL	.	4d	.	4g	-lig-lig
.	.	16AL	.	.	.	.	.
.	.	16BJJ	.	.	.	.	.
8AAL	.	8cL	.	8eL	.	4a	istist
8FJ	.	8AJ	.	16dL	.	.	.
.	.	.	.	16cJJ	.	.	.
8DL	.	8AL	.	(16fLL	.	4b	un-un-
.	.	.	.	16eJJ	.	.	.
8BBJ	.	16G#L	.	4d)	.	.	.
.	.	16F#JJ	.	.	.	.	.
4E	.	4G#	.	.	.	4b	-ser-ser
.	.	.	.	16eLL	.	.	.
.	.	.	.	16dJJ	.	.	.
=10	=10	=10	=10	=10	=10	=10	=10
2.AA;	.	2.E;	.	2.c;	.	2.a;	Gott!Gott!
=:!!:	=:!!:	=:!!:	=:!!:	=:!!:	=:!!:	=:!!:	=:!!:
*>D	*	*>D	*	*>D	*	*>D	*
8EL	.	8eL	.	8gL	.	4b	Hei-
8F#J	.	8d#J	.	8aJ	.	.	.
=11	=11	=11	=11	=11	=11	=11	=11
8GL	.	4e	.	4g	.	4b	-lig
8F#J	.	.	.	.	.	.	.
4E	.	4e	.	4g	.	8bL	ist
.	.	.	.	.	.	8ccJ	.
4BB	.	4d	.	4g	.	4dd	un-
4C#	.	8eL	.	8gL	.	4a	-ser
.	.	8AJ	.	16fL	.	.	.
.	.	.	.	16eJJ	.	.	.
=12	=12	=12	=12	=12	=12	=12	=12
4D	.	8AL	.	4.f	.	4a	Gott,
.	.	16dL	.	.	.	.	.
.	.	16cJJ	.	.	.	.	.
4E	.	8BL	.	.	.	4g	der
.	.	16cL	.	16eLL	.	.	.
.	.	16BJJ	.	16dJJ	.	.	.
8FL	.	8AL	.	8cL	.	4a	Herr
8EJ	.	16BL	.	16dL	.	.	.
.	.	16cJJ	.	16eJJ	.	.	.
4D	.	4d	.	4f	.	4b	.
=13	=13	=13	=13	=13	=13	=13	=13
4C	.	8GL	.	(16eLL	.	4cc	Ze-
.	.	.	.	16f#JJ	.	.	.
.	.	8eJ	.	4g)	.	.	.
4D	.	8.dL	.	.	.	4a	-ba-
.	.	.	.	8f#	.	.	.
.	.	16cJk	.	.	.	.	.
4GG;	.	4B;	.	4d;	.	4g;	-oth!
=:!!:	=:!!:	=:!!:	=:!!:	=:!!:	=:!!:	=:!!:	=:!!:
*>E	*	*>E	*	*>E	*	*>E	*
8EL	.	4c	.	8gL	DieDich,den	4cc	Dein'Derdie
8DJ	.	.	.	8fnJ	.	.	.
=14	=14	=14	=14	=14	=14	=14	=14
8CL	.	4G	.	8eL	gan-Gottheil'-	4cc	gÃ¶tt-hei-teu-
8DJ	.	.	.	8f#J	.	.	.
8EL	.	8GL	.	8gL	-zeVa--gen	4cc	-lich-li--ren
8F#J	.	8dJ	.	8aJ	.	.	.
4G	.	4d	.	8aL	wer--ter,Geist	4b	Macht-genMÃ¤r-
.	.	.	.	8gJ	.	.	.
4D	.	4d	.	8gL	-teimund	4a	undzwÃ¶lf-trer
.	.	.	.	8f#J	.	.	.
=15	=15	=15	=15	=15	=15	=15	=15
4GG	.	4.d	.	8gL	Chri-hÃ¶ch-TrÃ¶-	4b	Herr-Bo-all-
.	.	.	.	8f#J	.	.	.
4AA	.	.	.	4e	-sten--sten-ster	4a	-lich--ten-zu-
.	.	8c#	.	.	.	.	.
4DD;	.	4d;	.	4f#;	-heitThron,wert	4a;	-keitZahl,-mal
8DL	.	8FL	.	4d	rühmtdei-mit	4a	gehtundlo-
8EJ	.	8GJ	.	.	.	.	.
=16	=16	=16	=16	=16	=16	=16	=16
4F	.	8AL	.	16cLL	dich-nenrech-	4a	ü-die-ben
.	.	.	.	16AJ	.	.	.
.	.	8FJ	.	8dJ	.	.	.
4E	.	4G	.	8dL	aufrech--tem	4g	-berlie-dich,
.	.	.	.	8cJ	.	.	.
4D	.	8GL	.	8cL	Er--tenDienst	4a	Himm'l-benHerr,
.	.	8F#J	.	16dL	.	.	.
.	.	.	.	16cJJ	.	.	.
8GL	.	4d	.	8BL	-denund_sie	4b	undPro-mit
8FJ	.	.	.	8dJ	.	.	.
=17	=17	=17	=17	=17	=17	=17	=17
8EL	.	8cL	.	4.g	al-ein'-lobt	4cc	Er--phe-gro-
8CJ	.	8eJ	.	.	.	.	.
4D	.	8.dL	.	.	.	4a	-den-ten-ssem
.	.	.	.	8f#	-le--genund	.	.
.	.	16cJk	.	.	.	.	.
4GG;	.	4B;	.	4d;	-zeit.Sohn,ehrt.	4g;	weit.all',Schall.
=:!!:	=:!!:	=:!!:	=:!!:	=:!!:	=:!!:	=:!!:	=:!!:
*>F	*	*>F	*	*>F	*	*>F	*
4D	.	4d	.	4fn	DuEinNun	4a	Duderdu
=18	=18	=18	=18	=18	=18	=18	=18
4C#	.	8AL	.	16eLL	sitzstRich-hilf	4a	KÃ¶n'gJung-hast
.	.	.	.	16fJ	.	.	.
.	.	8eJ	.	8gJ	.	.	.
4D	.	8eL	.	8gL	zur-teruns,	4a	der-fraudem
.	.	16dL	.	8f#J	.	.	.
.	.	16cJJ	.	.	.	.	.
4.E	.	4B	.	8f#L	Rech-duHerr,	4g	Eh-LeibTod
.	.	.	.	16eL	.	.	.
.	.	.	.	16f#JJ	.	.	.
.	.	4e	.	4g	-tenzu-den	4b	-ren,nichtzer-
8F#	.	.	.	.	.	.	.
=19	=19	=19	=19	=19	=19	=19	=19
4G	.	4d	.	8gL	Got--künf-Die-	4b	Je-hast-stÃ¶rt
.	.	.	.	8fJ	.	.	.
4C#	.	4e	.	4g	-tes-tig-nern	4a	-suver-sein
4D;	.	4d;	.	(8gL	gleichbistdein,	4a;	Christ,-schmÃ¤ht,Macht
.	.	.	.	8f;J)	.	.	.
4F	.	8AL	.	8cL	mitAl-die	4a	Gottzu\0+er-und
.	.	8B-J	.	16fL	.	.	.
.	.	.	.	16eJJ	.	.	.
=20	=20	=20	=20	=20	=20	=20	=20
8AAL	.	4c	.	4.f	al--les,mit	4a	Va--lÃ¶-all'
8BB-J	.	.	.	.	.	.	.
4C	.	4c	.	.	.	4g	-ters-senChri-
.	.	.	.	8e	-lerwasdein'm	.	.
8FFL	.	4c	.	4f	Ehr,totBlut	8aL	ew'-das-sten
8GGJ	.	.	.	.	.	8bJ	.
8AAL	.	4c	.	4f	in'sunder-	4cc	-germensch-zum
8BBnJ	.	.	.	.	.	.	.
=21	=21	=21	=21	=21	=21	=21	=21
4C	.	4.c	.	8fL	Va-le--lÃ¶-	4g	Sohn-lichHim-
.	.	.	.	8eJ	.	.	.
4GG	.	.	.	4d	-ters-bend-set	4g	duGe--mel
.	.	8B	.	.	.	.	.
4C;	.	4G;	.	4c;	Reich.ist.sein.	4e;	bist,-schlecht,bracht.
=:|!	=:|!	=:|!	=:|!	=:|!	=:|!	=:|!	=:|!
*>G	*	*>G	*	*>G	*	*>G	*
4FF	.	4A	.	4c	.	4f	Lass
=22	=22	=22	=22	=22	=22	=22	=22
4GG	.	4G	.	8cL	.	4d	uns
.	.	.	.	8BJ	.	.	.
8AAL	.	8CL	.	8cL	.	4f	im
8BBJ	.	8GJ	.	8dJ	.	.	.
4C	.	4G	.	8dL	.	4e	Him-
.	.	.	.	8cJ	.	.	.
4BB	.	8GL	.	4d	.	4d	-mel
.	.	8DJ	.	.	.	.	.
=23	=23	=23	=23	=23	=23	=23	=23
4AA	.	4A	.	8dL	.	4e	ha-
.	.	.	.	16cL	.	.	.
.	.	.	.	16BJJ	.	.	.
4D	.	8AL	.	8cL	.	4f#	-ben
.	.	8DJ	.	16BL	.	.	.
.	.	.	.	16AJJ	.	.	.
4GG;	.	4D;	.	4B;	.	4g;	Teil
8GL	.	4B	.	4d	.	4g	mit
8FJ	.	.	.	.	.	.	.
=24	=24	=24	=24	=24	=24	=24	=24
8EL	.	8cL	.	8eL	.	4g	den
8DJ	.	8dJ	.	8fJ	.	.	.
4C	.	8eL	.	8gL	.	4g	Heil'-
.	.	8cJ	.	8eJ	.	.	.
8FL	.	8AL	.	8cL	.	4.a	-gen
16GL	.	8cJ	.	8fJ	.	.	.
16AJJ	.	.	.	.	.	.	.
4B-	.	16dLL	.	16fLL	.	.	.
.	.	16eJ	.	16e	.	.	.
.	.	8fJ	.	16d	.	8f	im
.	.	.	.	16c#JJ	.	.	.
=25	=25	=25	=25	=25	=25	=25	=25
8B-L	.	8fL	.	8dL	.	4g	ew'-
8C#J	.	8eJ	.	8AJ	.	.	.
4D	.	8dL	.	8AL	.	4f	-gen
.	.	8AJ	.	8dJ	.	.	.
4AA;	.	4A;	.	(8dL	.	4e;	Heil!
.	.	.	.	8c#;J)	.	.	.
4AA	.	4E	.	4A	.	4c	Hilf
=26	=26	=26	=26	=26	=26	=26	=26
4BB	.	4D	.	4G	.	4d	dei-
8AAL	.	8AL	.	8cL	.	4f	-nem
8BBJ	.	8GJ	.	8dJ	.	.	.
4C	.	4G	.	8dL	.	4e	Volk,
.	.	.	.	8cJ	.	.	.
4GG	.	4G	.	8cL	.	4d	Herr
.	.	.	.	8BJ	.	.	.
=27	=27	=27	=27	=27	=27	=27	=27
4FF	.	8CL	.	(16ALL	.	4f	Je-
.	.	.	.	16BJJ	.	.	.
.	.	8AJ	.	4c)	.	.	.
4GG	.	8.GL	.	.	.	4d	-su
.	.	.	.	8B	.	.	.
.	.	16FJk	.	.	.	.	.
4C;	.	4E;	.	4G;	.	4c;	Christ,
8CL	.	8EL	.	4c	.	4g	und
8DJ	.	8FJ	.	.	.	.	.
=28	=28	=28	=28	=28	=28	=28	=28
4E	.	4G	.	8cL	.	4g	seg-
.	.	.	.	8dJ	.	.	.
4C	.	8cL	.	4e	.	4g	-ne
.	.	8B-J	.	.	.	.	.
4FF	.	8AL	.	8eL	.	4.a	was
.	.	8FJ	.	16dL	.	.	.
.	.	.	.	16c#JJ	.	.	.
8BB-L	.	8FL	.	4d	.	.	.
8AAJ	.	16GL	.	.	.	8f	dein
.	.	16AJJ	.	.	.	.	.
=29	=29	=29	=29	=29	=29	=29	=29
4GG	.	4B-	.	8dL	.	4g	Erb-
.	.	.	.	8eJ	.	.	.
4D	.	4A	.	8eL	.	4f	-teil
.	.	.	.	8dJ	.	.	.
4AA;	.	4A;	.	(8dL	.	4e;	ist,
.	.	.	.	8c#;J)	.	.	.
8DL	.	4A	.	4d	.	4f	wart'
8CJ	.	.	.	.	.	.	.
=30	=30	=30	=30	=30	=30	=30	=30
8BBL	.	4G	.	8dL	.	4f	und
8AAJ	.	.	.	8cJ	.	.	.
4GG	.	4G	.	8BL	.	4f	pfleg'
.	.	.	.	8dJ	.	.	.
4C	.	4G	.	8dL	.	4e	ihr'
.	.	.	.	8cJ	.	.	.
4GG	.	4G	.	8cL	.	4d	zu
.	.	.	.	8BJ	.	.	.
=31	=31	=31	=31	=31	=31	=31	=31
8AAL	.	8FL	.	4.c	.	4f	al-
8FFJ	.	8AJ	.	.	.	.	.
4GG	.	8.GL	.	.	.	4d	-ler
.	.	.	.	8B	.	.	.
.	.	16FJk	.	.	.	.	.
4CC;	.	4E;	.	4G;	.	4c;	Zeit
8CL	.	8EL	.	4c	.	4g	und
8DJ	.	8FJ	.	.	.	.	.
=32	=32	=32	=32	=32	=32	=32	=32
8EL	.	8GL	.	8cL	.	4g	heb'
8FJ	.	8AJ	.	8dJ	.	.	.
4G	.	4B-	.	8eL	.	4g	sie
.	.	.	.	16dL	.	.	.
.	.	.	.	16eJJ	.	.	.
8FL	.	4c	.	4f	.	4.a	hoch
8EJ	.	.	.	.	.	.	.
4D	.	8.dL	.	4f	.	.	.
.	.	.	.	.	.	8f	in
.	.	16cJk	.	.	.	.	.
=33	=33	=33	=33	=33	=33	=33	=33
8DL	.	8B-L	.	4.e	.	4g	E-
8C#J	.	8AJ	.	.	.	.	.
4D	.	4A	.	.	.	4f	-wig-
.	.	.	.	8d	.	.	.
4AA;	.	4A;	.	4c#;	.	4e;	-keit.
4A	.	4A	.	4cn	.	8eL	TÃ¤g-
.	.	.	.	.	.	8fJ	.
=34	=34	=34	=34	=34	=34	=34	=34
8EL	.	8GL	.	8BL	.	4g	-lich,
8DJ	.	16AL	.	16cL	.	.	.
.	.	16BJJ	.	16dJJ	.	.	.
4C	.	8cL	.	8eL	.	4a	Herr
.	.	8BJ	.	8dJ	.	.	.
8FL	.	8AL	.	8cL	.	4a	Gott,
8EJ	.	16BL	.	16dL	.	.	.
.	.	16cJJ	.	16eJJ	.	.	.
4D	.	4d	.	4f	.	4a	wir
=35	=35	=35	=35	=35	=35	=35	=35
8AL	.	16cLL	lo-	[4e	lo-	4cc	lo-
.	.	16B	.	.	.	.	.
8GJ	.	16A	.	.	.	.	.
.	.	16GJJ	.	.	.	.	.
8FL	.	8AL	-ben	16eLL]	.	4a	-ben
.	.	.	.	16dJJ	.	.	.
8DJ	.	8fJ	.	16cLL	-ben	.	.
.	.	.	.	16BJJ	.	.	.
4A;	.	4e;	.	4c;	.	4a;	dich
8AAL	.	8cL	.	4e	.	4a	und
8BBJ	.	8dJ	.	.	.	.	.
=36	=36	=36	=36	=36	=36	=36	=36
8CL	.	8eL	.	8eL	.	4a	ehr'n
8DJ	.	8dJ	.	8fJ	.	.	.
4.E	dein'n	8dL	.	4g	.	4g	dein'n
.	.	8cJ	.	.	.	.	.
.	.	8cL	.	4f	.	8aL	Na-
8DL	Na-	8dJ	.	.	.	8bJ	.
8EJ	.	8GL	.	8gL	.	4cc	-men
8F	-men	8AJ	.	8fJ	.	.	.
=37	=37	=37	=37	=37	=37	=37	=37
8GL	.	(8B	.	4e	.	4g	ste-
8FJ	.	4c)	.	.	.	.	.
8GL	.	.	.	4d	.	4g	-tig-
8GGJ	.	8B	.	.	.	.	.
4C;	.	4G;	.	4c;	.	4e;	-lich.
=!|:	=!|:	=!|:	=!|:	=!|:	=!|:	=!|:	=!|:
*>H	*	*>H	*	*>H	*	*>H	*
4AA	.	4c	.	4e	.	4a	Be-seizeig'
=38	=38	=38	=38	=38	=38	=38	=38
4D	.	4d	.	4f	.	4a	-hüt'gnÃ¤-uns
8CL	.	8AL	.	8eL	.	4a	uns-digdei-
8DJ	.	8fJ	.	16dL	.	.	.
.	.	.	.	16cJJ	.	.	.
8EL	.	8fL	.	4B	.	4g	heut',uns,-ne
8FJ	.	16eL	.	.	.	.	.
.	.	16dJJ	.	.	.	.	.
8GL	.	8eL	.	8BL	.	4b	ooBarm-
8FJ	.	8AJ	.	16cL	.	.	.
.	.	.	.	16dJJ	.	.	.
=39	=39	=39	=39	=39	=39	=39	=39
8EL	.	8GL	.	4e	.	4b	treu-Her--her-
8DJ	.	8F#J	.	.	.	.	.
4C#	.	4G	.	16eLL	.	4b	-er-re-zig-
.	.	.	.	16f#J	.	.	.
.	.	.	.	8gJ	.	.	.
4D;	.	4d;	.	(8gL	.	4a;	Gott,Gott,-keit,
.	.	.	.	8f#;J)	.	.	.
8FL	.	4c	.	4fn	.	4a	vorseiwie
8EJ	.	.	.	.	.	.	.
=40	=40	=40	=40	=40	=40	=40	=40
4D	.	8cL	.	4f	.	4a	al-gnÃ¤-un-
.	.	8B-J	.	.	.	.	.
4E	.	4B-	.	4c	.	4g	-ler-dig-ser
4F	.	8AL	.	4c	.	4a	Sünd'unsHoff-
.	.	8GJ	.	.	.	.	.
8AAL	.	4F	.	8cL	.	4cc	undin-nung
8BBJ	.	.	.	8dJ	.	.	.
=41	=41	=41	=41	=41	=41	=41	=41
4C	.	8EL	.	[4e	.	4g	Mis-al-zu
.	.	8GJ	.	.	.	.	.
4GG	.	4B-	.	16eLL]	.	4g	-se--lerdir
.	.	.	.	16c#JJ	.	.	.
.	.	.	.	8d	.	.	.
4AA;	.	4A;	.	(8dL	.	4e;	-tat,Noth!steht.
.	.	.	.	8c#;J)	.	.	.
=:|!	=:|!	=:|!	=:|!	=:|!	=:|!	=:|!	=:|!
*>I	*	*>I	*	*>I	*	*>I	*
4D	.	8AL	.	4d	.	8fL	Auf
.	.	8GJ	.	.	.	8eJ	.
=42	=42	=42	=42	=42	=42	=42	=42
8DL	.	4F	.	8AL	.	4d	dich
8CJ	.	.	.	16B-L	.	.	.
.	.	.	.	16cJJ	.	.	.
8BB-L	.	8FL	.	4d	.	4f	hof-
8AAJ	.	16GL	.	.	.	.	.
.	.	16AJJ	.	.	.	.	.
4GG	.	8B-L	.	8dL	.	4g	-fen
.	.	16cL	.	8eJ	.	.	.
.	.	16B-JJ	.	.	.	.	.
4FF	.	8AL	.	8eL	.	4a	wir,
.	.	8FJ	.	8dJ	.	.	.
=43	=43	=43	=43	=43	=43	=43	=43
4EE	.	8B-L	.	8dL	.	4g	lie-
.	.	8GJ	.	8c#J	.	.	.
4DD	.	4A	.	4d	.	4f	-ber
4AA;	.	4A;	.	4c#;	.	4e;	Herr,
8DL	.	4A	.	4d	.	4f	in
8CJ	.	.	.	.	.	.	.
=44	=44	=44	=44	=44	=44	=44	=44
8BB-L	.	4B-	.	4d	.	4f	Schan-
8AAJ	.	.	.	.	.	.	.
4GG	.	4B-	.	8dL	.	4g	-den
.	.	.	.	8eJ	.	.	.
8FFL	.	4c	.	8fL	.	4a	lass
16GGL	.	.	.	8eJ	.	.	.
16AAJJ	.	.	.	.	.	.	.
4BB-	.	4B-	.	4d	.	8gL	uns
.	.	.	.	.	.	8fJ	.
=45	=45	=45	=45	=45	=45	=45	=45
8BB-L	.	4B-	.	4d	.	4g	nim-
8GGJ	.	.	.	.	.	.	.
4D	.	8AL	.	16dLL	.	4f	-mer-
.	.	.	.	16c#J	.	.	.
.	.	8G#J	.	8dJ	.	.	.
4AA;	.	4A;	.	4c#;	.	4e;	-mehr.
4BBn	A-	4Gn	A-	4d	A-	4g	A-
=46	=46	=46	=46	=46	=46	=46	=46
2.C	.	4G	.	4c	.	4e	.
.	.	4E	.	4G	.	4c	.
.	.	2F	.	4A	.	2d	.
8BBL	.	.	.	8G#L	.	.	.
8AAJ	.	.	.	8AJ	.	.	.
=47	=47	=47	=47	=47	=47	=47	=47
4.GG#	.	4E	.	8BL	.	[1e	-men!
.	.	.	.	8cJ	.	.	.
.	.	2B	.	4d	.	.	.
8EE	.	.	.	.	.	.	.
8AAL	.	.	.	[2c	.	.	.
8BB	.	.	.	.	.	.	.
8C	.	[4A	.	.	.	.	.
8DJ	.	.	.	.	.	.	.
=48	=48	=48	=48	=48	=48	=48	=48
2E	.	4A]	.	4c]	.	1e;]	.
.	.	8G#L	.	8BL	.	.	.
.	.	8F#J	.	8AJ	.	.	.
2EE;	-men!	2G#;	-men!	2B;	-men!	.	.
==|!	==|!	==|!	==|!	==|!	==|!	==|!	==|!
*-	*-	*-	*-	*-	*-	*-	*-
!!!RWG: Key is interpreted using the Humdrum key tool.
!!!URL-pdf: https://s9.imslp.org/files/imglnks/usimg/7/7a/IMSLP04155-Bach_-_BGA_253-438.pdf#page=40 	Bach-Gesellschaft Ausgabe, Band 39 (pp.175-276) Leipzig: Breitkopf und Härtel, 1892. Plate B.W. XXXIX.
!!!END: 1994/06/08
!!!EMD: Converted from MuseData to Humdrum Dec 19, 2000, by Andreas Kornstaedt using muse2kern.
!!!EED: Craig Stuart Sapp
!!!EEV: 2024/03/31
!!!filter-keyboard: satb2gs
!!!title: @{OTL} (@{SCT})
